X:1
%
T:Rochester Schottische [1]
L:1/8
M:C|
S:Liz Slade
Z:AK/Fiddler's Companion
K:D
f>(d e)>d d2 d>d|d>(B A)>G F2 F>F|f>(d e)>d d2 B>B|A3 A A4|
f>(d e)>d d2 d>d|d>(B A)>G F2 F>G|A>(BA)>(G F)>DE>F|D8:|
|:A>(BA)>(G F)>DD>D|E>(DE)>F G2 B>B|A>(BA)>(G F)>DD>D|E>(DE)>F G2 B>B|
A>(BA)>(G F)>DD>D|E>(DE)>F G2 F>G|A>(BA)>(G F)>DE>F|D8:|

